X:1
T:Title
%%score 1 { 2 | 3 }
L:1/8
Q:1/4=93
M:3/4
K:Db
V:1 treble nm="Grand Piano, Soprano"
V:2 treble nm="Choir Pad, Best of All, C. W. Ray"
V:3 bass 
V:1
 [DF]>[EG] [FA]3- [FA]/[GB]/ | [FA]>[DF] [EG]2 [DF]2 | D>[DE] [DF]3- [DF]/[DG]/ | %3
w: By~William~James~Kirkpatrick * * * *|||
 [DF]>D [DF]2 [CE]2 | [CE]>[DF] [EG]3- [EG]/[FA]/ | [GB]>[Gc] [Fe]2 [Fd]2 | %6
w: |||
 [Fc]>[FB] [EA]3- [EA]/[CE]/ | [Ec]>[DB] [CA]4 | [EA]>[EA] [Gc]3- [Gc]/[Gc]/ | %9
w: |||
 [GB]>[GA] [FA]2 [Fd]2 | [DF]>[DF] [DB]3- [DB]/[DF]/ | [DB]>[Fd] [Fd]2 [Ec]2 | %12
w: |||
 [DB]>[GA] [Af]3- [Af]/[Ae]/ | [Ad]>A [Ac]2 [GB]2 | [_Fd]>[FB] [=FA]3- [FA]/[GB]/ | %15
w: |||
 [EG]>[CA] [DF]4 | A>A [Fd]4 | A>A [Ge]4 | A>A [Af]3- [Af]/[Ae]/ | [Ad]>A [Ac]2 [GB]2 | %20
w: |||||
 [_Fd]>[FB] [=FA]3- [FA]/[Fd]/ | [Ge]>[Gc] [Fd]4- | [Fd]4 z2 |] %23
w: |||
V:2
 A,>A, D3- D/D/ | D>[K:bass]A, A,2 A,2 | F,>G, A,3- A,/A,/ | A,>F, A,2 A,2 | A,>A, A,3- A,/A,/ | %5
 A,>A, A,2 A,2 | A,>[K:treble]D C3- C/A,/ | A,>=G, A,4 | C>C E3- E/E/ | D>C D2[K:bass] A,2 | %10
 F,>F, F,3- F,/F,/ | F,>B, B,2 =A,2 | B,>[K:treble]C D3- D/C/ | D>D D2 D2 | B,>D D3- D/D/ | %15
 C>[K:bass]A, A,4 | A,>A, A,4 | A,>A, C4 | A,>A,[K:treble] D3- D/C/ | D>D D2 D2 | %20
 B,>D D3- D/[K:bass]D/ | C>A, A,4- | A,4 z2 |] %23
V:3
 D,>D, D,3- D,/D,/ | D,>D, D,2 D,2 | D,>D, D,3- D,/D,/ | D,>D, A,,2 A,,2 | A,,>A,, A,,3- A,,/A,,/ | %5
 A,,>A,, D,2 D,2 | D,>D, E,3- E,/E,/ | E,>E, A,,4 | A,>A, A,3- A,/A,/ | A,>A, D,2 D,2 | %10
 D,>D, B,,3- B,,/B,,/ | B,,>B,, F,2 F,2 | G,>A, D,3- D,/E,/ | F,>F, G,2 G,2 | =G,>G, A,3- A,/A,/ | %15
 A,,>A,, D,4 | z2 D,4 | z2 A,4 | z2 D,3- D,/E,/ | F,>F, G,2 G,2 | =G,>G, A,3- A,/A,/ | A,2 D,4- | %22
 D,4 z2 |] %23

